static/logos/clickup-wordmark-color.svg

<svg width="100" height="25" viewBox="0 0 100 25" fill="none" xmlns="http://www.w3.org/2000/svg">
<g clip-path="url(#clip0_1_3243)">
<path d="M0.0625 17.8858L3.63757 15.1471C5.53697 17.6261 7.55499 18.7687 9.80124 18.7687C12.0355 18.7687 13.9964 17.6396 15.8103 15.1801L19.4364 17.8528C16.8193 21.3993 13.567 23.2732 9.80124 23.2732C6.04749 23.2732 2.7637 21.4114 0.0625 17.8858Z" fill="url(#paint0_linear_1_3243)"/>
<path d="M9.78919 5.982L3.42582 11.4655L0.484375 8.05408L9.8027 0.0240479L19.0474 8.06008L16.0925 11.4595L9.78919 5.982Z" fill="url(#paint1_linear_1_3243)"/>
<path d="M33.1441 19.8904C30.9715 19.8904 29.1607 19.1862 27.6922 17.7778C26.2237 16.3499 25.5 14.5196 25.5 12.2853C25.5 10.0331 26.2432 8.18172 27.7117 6.73277C29.2012 5.2643 31.012 4.54058 33.1652 4.54058C35.8213 4.54058 38.1742 5.68622 39.5435 7.47751L37.1471 9.99253C36 8.7643 34.7523 8.14118 33.4054 8.14118C32.2583 8.14118 31.3123 8.52256 30.527 9.30784C29.7628 10.0931 29.3814 11.0796 29.3814 12.2658C29.3814 13.4129 29.7628 14.3784 30.527 15.1637C31.3123 15.928 32.2583 16.3094 33.3844 16.3094C34.8529 16.3094 36.1411 15.6652 37.2072 14.3979L39.7027 16.7928C39.018 17.6982 38.0931 18.443 36.9459 19.0256C35.7988 19.6097 34.5315 19.8904 33.1426 19.8904H33.1441ZM43.9249 4.31835V19.6697H40.3844V4.31835H43.9249ZM47.2808 7.57661C46.0946 7.57661 45.2297 6.71175 45.2297 5.52556C45.2297 4.37841 46.1351 3.51355 47.2808 3.51355C48.4279 3.51355 49.3138 4.37841 49.3138 5.52556C49.3138 6.71175 48.4279 7.57811 47.2808 7.57811V7.57661ZM49.0721 8.5631V19.6697H45.5105V8.5631H49.0721ZM55.8889 19.9115C54.1381 19.9115 52.7297 19.3679 51.6246 18.2808C50.5375 17.1952 49.994 15.8064 49.994 14.0961C49.994 12.3859 50.5375 10.9985 51.6441 9.91145C52.7508 8.82436 54.1787 8.28232 55.9489 8.28232C58.2628 8.28232 60.2958 9.40844 61.2402 11.5211L58.4039 13.0105C57.8408 12.0646 57.0556 11.5811 56.03 11.5811C55.2853 11.5811 54.6817 11.8229 54.1982 12.3063C53.9688 12.5436 53.7886 12.8239 53.6677 13.131C53.5468 13.4382 53.4878 13.7661 53.494 14.0961C53.494 15.5646 54.5601 16.6517 55.9895 16.6517C57.015 16.6517 57.961 16.0886 58.3634 15.2238L61.2012 16.913C60.2342 18.7643 58.2432 19.9115 55.8889 19.9115ZM73.5511 19.6697H69.3243L66.0435 15.2628L65.521 15.7463V19.6697H61.982V4.31835H65.5225V11.7823L68.8619 8.5631H73.1877L68.4204 13.0301L73.5511 19.6697ZM73.7883 13.8949V4.80034H77.5706V13.8349C77.5706 15.5046 78.536 16.3094 79.9249 16.3094C81.2928 16.3094 82.2583 15.464 82.2583 13.8349V4.80034H86.0616V13.8949C86.0616 18.2808 83.0225 19.931 79.9249 19.931C76.8468 19.931 73.7883 18.2808 73.7883 13.8949ZM94.467 8.28232C96.0571 8.28232 97.3453 8.84538 98.3709 9.97151C99.3964 11.0781 99.8994 12.467 99.8994 14.0961C99.8994 15.7268 99.3769 17.1142 98.3514 18.2613C97.3243 19.3874 96.0375 19.952 94.488 19.952C93.2598 19.952 92.1937 19.5496 91.3288 18.7448V24.2373H87.7673V8.5631H91.2688V9.59013C92.1336 8.72376 93.1997 8.28232 94.467 8.28232ZM96.2778 14.1367C96.2778 12.6877 95.2327 11.5811 93.7838 11.5811C92.3348 11.5811 91.2688 12.6877 91.2688 14.1367C91.2688 14.8409 91.509 15.4445 91.973 15.9475C92.4549 16.4505 93.0586 16.6922 93.7838 16.6922C94.5075 16.6922 95.1111 16.4505 95.5736 15.9475C96.035 15.4583 96.288 14.809 96.2793 14.1367H96.2778Z" fill="#111111"/>
</g>
<defs>
<linearGradient id="paint0_linear_1_3243" x1="0.0625" y1="20.6737" x2="19.4364" y2="20.6737" gradientUnits="userSpaceOnUse">
<stop stop-color="#8930FD"/>
<stop offset="1" stop-color="#49CCF9"/>
</linearGradient>
<linearGradient id="paint1_linear_1_3243" x1="0.484375" y1="7.80537" x2="19.0474" y2="7.80537" gradientUnits="userSpaceOnUse">
<stop stop-color="#FF02F0"/>
<stop offset="1" stop-color="#FFC800"/>
</linearGradient>
<clipPath id="clip0_1_3243">
<rect width="100" height="24.3243" fill="white"/>
</clipPath>
</defs>
</svg>

<svg xmlns="http://www.w3.org/2000/svg" width="256" height="64" fill="none" viewBox="0 0 100 25"><g clip-path="url(#a)"><path fill="url(#b)" d="m.063 17.886 3.575-2.739c1.899 2.48 3.917 3.622 6.163 3.622 2.235 0 4.195-1.13 6.01-3.589l3.625 2.673c-2.617 3.546-5.869 5.42-9.635 5.42-3.754 0-7.037-1.862-9.739-5.387Z"/><path fill="url(#c)" d="m9.79 5.982-6.364 5.484L.484 8.053 9.803.024l9.244 8.036-2.954 3.4-6.304-5.478Z"/><path fill="#111" d="M33.144 19.89c-2.172 0-3.983-.704-5.452-2.112-1.468-1.428-2.192-3.258-2.192-5.493 0-2.252.743-4.103 2.212-5.552 1.49-1.469 3.3-2.192 5.453-2.192 2.656 0 5.01 1.145 6.379 2.937l-2.397 2.515C36 8.764 34.752 8.14 33.405 8.14c-1.147 0-2.093.382-2.878 1.167-.764.785-1.146 1.772-1.146 2.958 0 1.147.382 2.112 1.146 2.898.785.764 1.731 1.145 2.857 1.145 1.469 0 2.757-.644 3.823-1.911l2.496 2.395c-.685.905-1.61 1.65-2.757 2.233-1.147.584-2.414.864-3.803.864h.001Zm10.78-15.572V19.67h-3.54V4.318h3.54Zm3.357 3.259c-1.186 0-2.051-.865-2.051-2.051 0-1.148.905-2.012 2.05-2.012 1.148 0 2.034.864 2.034 2.012 0 1.186-.886 2.052-2.033 2.052v-.001Zm1.791.986V19.67H45.51V8.563h3.562Zm6.817 11.348c-1.75 0-3.16-.543-4.264-1.63-1.087-1.086-1.631-2.475-1.631-4.185 0-1.71.544-3.098 1.65-4.185 1.107-1.087 2.535-1.629 4.305-1.629 2.314 0 4.347 1.126 5.291 3.24l-2.836 1.489c-.563-.946-1.348-1.43-2.374-1.43-.745 0-1.348.242-1.832.725a2.509 2.509 0 0 0-.704 1.79c0 1.469 1.066 2.556 2.495 2.556 1.026 0 1.972-.563 2.374-1.428l2.838 1.689c-.967 1.851-2.958 2.998-5.312 2.998Zm17.662-.241h-4.227l-3.28-4.407-.523.483v3.924h-3.539V4.318h3.54v7.464l3.34-3.219h4.326L68.42 13.03l5.131 6.64Zm.237-5.775V4.8h3.783v9.035c0 1.67.965 2.474 2.354 2.474 1.368 0 2.333-.845 2.333-2.474V4.8h3.804v9.095c0 4.386-3.04 6.036-6.137 6.036-3.078 0-6.137-1.65-6.137-6.036Zm20.679-5.613c1.59 0 2.878.563 3.904 1.69 1.025 1.106 1.528 2.495 1.528 4.124 0 1.63-.522 3.018-1.548 4.165-1.027 1.126-2.314 1.691-3.863 1.691-1.228 0-2.294-.402-3.16-1.207v5.492h-3.56V8.563h3.5V9.59c.866-.866 1.932-1.308 3.199-1.308Zm1.81 5.855c0-1.45-1.044-2.556-2.493-2.556-1.45 0-2.515 1.107-2.515 2.556 0 .704.24 1.307.704 1.81.482.504 1.086.745 1.81.745s1.328-.241 1.79-.745a2.59 2.59 0 0 0 .706-1.81h-.001Z"/></g><defs><linearGradient id="b" x1=".063" x2="19.436" y1="20.674" y2="20.674" gradientUnits="userSpaceOnUse"><stop stop-color="#8930FD"/><stop offset="1" stop-color="#49CCF9"/></linearGradient><linearGradient id="c" x1=".484" x2="19.047" y1="7.805" y2="7.805" gradientUnits="userSpaceOnUse"><stop stop-color="#FF02F0"/><stop offset="1" stop-color="#FFC800"/></linearGradient><clipPath id="a"><path fill="#fff" d="M0 0h100v24.324H0z"/></clipPath></defs></svg>
